icons/desktop/16/svg/newsfeed-16.svg

<svg width="16" height="16" viewBox="0 0 16 16" fill="none" xmlns="http://www.w3.org/2000/svg">
<path d="M11.25 10.25C11.6642 10.25 12 10.5858 12 11C12 11.4142 11.6642 11.75 11.25 11.75H4.75C4.33579 11.75 4 11.4142 4 11C4 10.5858 4.33579 10.25 4.75 10.25H11.25Z" fill="black"/>
<path d="M6 4.25C6.55228 4.25 7 4.69772 7 5.25V7.75C7 8.30228 6.55228 8.75 6 8.75H5C4.44772 8.75 4 8.30228 4 7.75V5.25C4 4.69772 4.44772 4.25 5 4.25H6Z" fill="black"/>
<path d="M11.25 7.25C11.6642 7.25 12 7.58579 12 8C12 8.41421 11.6642 8.75 11.25 8.75H9C8.58579 8.75 8.25 8.41421 8.25 8C8.25 7.58579 8.58579 7.25 9 7.25H11.25Z" fill="black"/>
<path d="M11.25 4.25C11.6642 4.25 12 4.58579 12 5C12 5.41421 11.6642 5.75 11.25 5.75H9C8.58579 5.75 8.25 5.41421 8.25 5C8.25 4.58579 8.58579 4.25 9 4.25H11.25Z" fill="black"/>
<path fill-rule="evenodd" clip-rule="evenodd" d="M8 1C9.35414 1 10.8879 1.06812 12.5615 1.26074C13.9499 1.42036 15 2.60179 15 3.99707V12.0059C15 13.3855 13.9763 14.5763 12.5859 14.7373C11.2006 14.8973 9.66484 15 8 15C6.64586 15 5.11208 14.9319 3.43848 14.7393C2.05011 14.5796 1 13.3982 1 12.0029V3.99414C1 2.61448 2.02371 1.42365 3.41406 1.2627C4.79938 1.10266 6.33516 1 8 1ZM8 2.5C6.39691 2.5 4.91858 2.59897 3.58594 2.75293C2.97243 2.82411 2.5 3.3559 2.5 3.99414V12.0029C2.5 12.6376 2.97987 13.1765 3.60938 13.249C5.21967 13.4344 6.69621 13.5 8 13.5C9.60309 13.5 11.0814 13.401 12.4141 13.2471C13.0276 13.1759 13.5 12.6441 13.5 12.0059V3.99707C13.5 3.36244 13.0201 2.82349 12.3906 2.75098C10.7803 2.56563 9.30379 2.5 8 2.5Z" fill="black"/>
</svg>

<!-- This Source Code Form is subject to the terms of the Mozilla Public
   - License, v. 2.0. If a copy of the MPL was not distributed with this
   - file, You can obtain one at http://mozilla.org/MPL/2.0/. -->
<svg xmlns="http://www.w3.org/2000/svg" width="16" height="16" fill="context-fill" fill-opacity="context-fill-opacity" viewBox="0 0 16 16">
    <path d="M11.25 10.25a.75.75 0 0 1 0 1.5h-6.5a.75.75 0 0 1 0-1.5zM6 4.25a1 1 0 0 1 1 1v2.5a1 1 0 0 1-1 1H5a1 1 0 0 1-1-1v-2.5a1 1 0 0 1 1-1zM11.25 7.25a.75.75 0 0 1 0 1.5H9a.75.75 0 0 1 0-1.5zM11.25 4.25a.75.75 0 0 1 0 1.5H9a.75.75 0 0 1 0-1.5z" />
    <path fill-rule="evenodd" d="M8 1c1.354 0 2.888.068 4.562.26A2.76 2.76 0 0 1 15 3.998v8.009c0 1.38-1.024 2.57-2.414 2.731a40 40 0 0 1-9.148.002A2.76 2.76 0 0 1 1 12.003V3.994c0-1.38 1.024-2.57 2.414-2.731A40 40 0 0 1 8 1m0 1.5c-1.603 0-3.081.099-4.414.253A1.24 1.24 0 0 0 2.5 3.994v8.009c0 .635.48 1.174 1.11 1.246a38.487 38.487 0 0 0 8.805-.002 1.24 1.24 0 0 0 1.085-1.241V3.997c0-.635-.48-1.174-1.11-1.246A38 38 0 0 0 8 2.5" clip-rule="evenodd" />
</svg>
